Newaita-dark/.LP/32/network-wireless-secure-signal-excellent.svg

<svg xmlns="http://www.w3.org/2000/svg" xmlns:xlink="http://www.w3.org/1999/xlink" width="32px" height="32px" viewBox="0 0 32 32" version="1.1">
<g id="surface1">
<path style=" stroke:none;fill-rule:nonzero;fill:rgb(25.882354%,25.882354%,25.882354%);fill-opacity:1;" d="M 15.875 4.382812 C 10.59375 4.382812 5.746094 6.1875 1.917969 9.214844 L 4.171875 12.5 C 7.359375 9.90625 11.429688 8.355469 15.875 8.355469 C 20.324219 8.355469 24.394531 9.90625 27.582031 12.5 L 29.835938 9.214844 C 26.007812 6.1875 21.160156 4.382812 15.875 4.382812 Z M 15.875 4.382812 "/>
<path style=" stroke:none;fill-rule:nonzero;fill:rgb(25.882354%,25.882354%,25.882354%);fill-opacity:1;" d="M 15.875 12.324219 C 12.265625 12.324219 8.972656 13.625 6.433594 15.785156 L 8.699219 19.082031 C 10.582031 17.347656 13.101562 16.292969 15.875 16.292969 C 18.652344 16.292969 21.167969 17.347656 23.054688 19.082031 L 25.320312 15.785156 C 22.78125 13.625 19.488281 12.324219 15.875 12.324219 Z M 15.875 12.324219 "/>
<path style=" stroke:none;fill-rule:nonzero;fill:rgb(25.882354%,25.882354%,25.882354%);fill-opacity:1;" d="M 15.875 18.109375 C 14.042969 18.109375 12.570312 19.585938 12.570312 21.417969 C 12.570312 22.78125 13.382812 23.945312 14.554688 24.453125 L 14.554688 27.371094 C 14.554688 27.738281 14.847656 28.035156 15.214844 28.035156 L 16.539062 28.035156 C 16.90625 28.035156 17.199219 27.738281 17.199219 27.371094 L 17.199219 24.453125 C 18.371094 23.945312 19.183594 22.78125 19.183594 21.417969 C 19.183594 19.585938 17.710938 18.109375 15.875 18.109375 Z M 15.875 18.109375 "/>
</g>
</svg>

<svg xmlns="http://www.w3.org/2000/svg" width="32" height="32"><g fill="#424242"><path d="M15.875 4.383A22.414 22.414 0 0 0 1.918 9.215L4.172 12.5a18.466 18.466 0 0 1 11.703-4.145c4.45 0 8.52 1.551 11.707 4.145l2.254-3.285a22.417 22.417 0 0 0-13.961-4.832zm0 0"/><path d="M15.875 12.324c-3.61 0-6.902 1.301-9.441 3.461l2.265 3.297a10.548 10.548 0 0 1 7.176-2.789c2.777 0 5.293 1.055 7.18 2.789l2.265-3.297a14.511 14.511 0 0 0-9.445-3.46zm0 0"/><path d="M15.875 18.11a3.3 3.3 0 0 0-3.305 3.308c0 1.363.813 2.527 1.985 3.035v2.918a.66.66 0 0 0 .66.664h1.324a.66.66 0 0 0 .66-.664v-2.918a3.296 3.296 0 0 0 1.985-3.035 3.3 3.3 0 0 0-3.309-3.309zm0 0"/></g></svg>
